X:1
T:Demandez vous
T:Demandez vous
T:Thomas Crecquillon
C:Thomas Crecquillon
%%score [ 1 2 [ 3 4 ] ]
L:1/8
Q:1/4=76
M:2/2
K:F
V:1 treble nm="Superius" snm="S"
V:2 treble nm="Altus" snm="A"
V:3 treble-8 nm="Tenor 1" snm="T 1"
V:4 treble-8 nm="Tenor 2" snm="T 2"
V:1
 z4 G2 GA | BGBc d2 B2 | A2 d4 c2 | d4 z4 | z4 z2 g2 | fedc BAGA | B2 A4 G2 | A4 z2 A2 | %8
w: De- man- dez|vous qui me faict si _|_ _ joy-|eulx,|c'est|quel- le'a dict, j'en ay bon- ne me-|moy- * *|re, que|
 AA A2 G2 GA | Bc d4 c2 | B2 c3 B B2- |[M:2/4] B2 A2 |[M:3/4] B4 B2 | B4 B2 | A4 A2 | G4 G2 | %16
w: de nous deux, el- le m'ay-|mait _ le _|_ _ _ _|* mieulx,|ve- la|pour- quoy|j'ay tant|d'ai- s'et|
 A4 c2- | cB A4 | G4 F2 |[M:2/2] G4 z2 G2 | GGcc cBAG | F2 B4 A2- | A2 G2 A4- | A4 z4 | %24
w: de gloi-|||re, vous|me di- rez qu'il est as- sez no-|toi- * *|* * re,|_|
 z2 c2 cd ec | de f2 e2 d2- | d2 c2 d4- | d4 z2 B2 | BBAF GABc | d2 cA B2 d2 | dd A2 c2 B2 | %31
w: qu'el- le'ay- * me'ail- *|leurs et que je suis|_ de- ceu,|_ je|le scay bien, mais je ne le veulx|croi- * * re, mais|je ne le veulx croi-|
 A2 d4 c2 | d4 z4 | d2 cB A c2 B | c3 d e f2 e | f2 z f ed c2 | z dcB A2 c2 | B2 A3 G G2- | %38
w: |re,|car je per- drois l'ai- se|que j'ay _ _ re-|ceu, car je per- drois,|car je per- drois l'ai-|se que _ j'ay|
 G2 F2 G4 | z4 d2 cB | A c2 B c3 d | e f2 e f2 z f | ed c2 z dcB | A2 c2 B2 A2- | AG G4 F2 | G8 |] %46
w: _ re- ceu,|car je per-|drois l'ai- se que- *|jay _ re- ceu, car|je per- drois, car je per-|drois l'ai- se que|_ _ j'ay re-|ceu.|
V:2
 z8 | z4 D2 DE | FDFG A2 A2 | F4 A2 AG | FEDC B, D2 C | D2 F2 G2 D2 | G2 C2 D4 | E4 F2 D2 | %8
w: |deux, el- le|m'ay- mait le mieulx, el- le|m'ay- mait le mieulx,|ve- la pour quoy j'ay tant d'ai-|s'et de gloi- re,|vous me di-|rez qu'il est|
 FFCD EF G2 | G2 D3 E F2 |"^b" B,2 F2 G2 E2 |[M:2/4] F4 |[M:3/4] D4 F2 | G4 F2 | F4 F2 | D4 E2 | %16
w: as- sez no- toi- re, qu'el- le'ay-|me'ail- leurs * *|et que je suis|de-|ceu, je|le scay|bien, mais|je ne|
 F4 G2 | G2 E2 F2 | D2 D4 |[M:2/2] z2 D2 DDGF | ED C2 F3 E | DCB,C DE F2- | F2 E2 F4- | F4 z4 | %24
w: le veulx||* croi-|re, je ne le veulx|croi- re, car je *|per- * * * * * *|* * drois,-|_|
 F2 FG AFGA | B2 c4 B2 | A4 F4- | F4 z4 | z4 G2 GG | FDEF GA B2 | A4 z2 D2- | DEFG A4 | %32
w: car- je * per- * drois, car|je per- drois|l'ay- se|_|que j'ay re-|ceu, car je per- drois, car je|per- drois,|_ _ _ _ car|
 F2 F2 ED C2 | z4 A2 GF | E2 A2 GF G2 | F2 z2 B2 AG | F2 z2 A4 | G2 E2 F2 E2 | D4 B,2 B2 | %39
w: je per- drois, * car|je per- drois,|l'ai- se que _ j'ay|re- ceu. De- man-|dez vous|qui me faict _|si joy- eulx,|
 A G2 F G2 z2 | A2 GF E2 A2 | GF G2 F2 z2 | B2 AG F2 z2 | A4 G2 E2 | F2 E2 D4 | D8 |] %46
w: qui _ me faict|si joy- eulx, c'est qu'el-|le'a _ dict, j'en|ay bon- ne me-|moy- re, j'en|ay _ bon-|ne|
V:3
 G2 GA BGBc |"^b" de d2 G g2 g | f2 d2 e4 | d4 f2 ed | cBAG F A2 G | A B2 A GABc | de f3 e d2- | %7
w: me- moy- re, que de nous deux|el- _ le m'ay- mait le|mieulx, ve- la|pour quoy j'ay tant|d'ai- s'et de gloi- re, re, vous|me di- rez qu'il * * *|* * est as- sez|
 d2 c2 d4 | A2 AA c2 c2 | B3 A F2 F2 | G2 A2 B4 |[M:2/4] c4 |[M:3/4] B4 d2 | d4 d2 | c4 c2 | %15
w: * * no-|toi- re, qu'el- l'ay- me'ail-|leurs et que je|_ _ suis|_|de- ceu,|je le|scay bien,|
 B4 B2 | c4 e2 | d2 c4 | B2 A4 |[M:2/2] G4 z4 | z2 c2 ccff | fedc B2 c2- | c2 B2 c4 | z2 c2 cd ec | %24
w: mais je|ne le||* veulx|croi-|re, je- le scay bien,|mais je ne le veulx *|* * croi-|re, car * je *|
 de f4 e2 | fgaf g2 f2 | e4 d4 | z2 f2 ffec | defd e2 d2 | z4 z2 g2 | ggfd efgg | f2 d2 e4 | %32
w: per- drois, car je|per- _ _ _ _ _|drois, car|je per- drois, car je|per- drois l'ai- se que j'ay|re-|ceu, car je per- drois, car je per-|drois, * *|
 d2 z2 g2 fe | d2 z2 f2 ed | c2 A2 BF c2 | A2 z a gf e2 | d2 e2 f3 e | d2 c4 B2 | A4 G2 z2 | %39
w: car je per- drois,|car je per- drois|l'ai- se que _ j'ay|re- ceu. ÿÿÿT De- man-|dez vous qui _|_ me _|faict si|
 c2 BA G2 z2 | f2 ed c2 A2 | BF c2 A2 z a | gf e2 d2 e2 | f3 e d2 c2- | c2 B2 A4 | G8 |] %46
w: joy- eulx, c'est qu'el-|le'a dict, j'en ay bon-|ne _ me- moy- re,|bon- ne me- moy- re,|que _ _ de|_ _ nous|deux|
V:4
 z8 | G2 GA BGBc | d2 B2 A4 | D4 d2 cB | AGFE DF E2 | D4 z2 G2- | G2 F2 B4 | A4 D4 | D2 FF CDEF | %9
w: |le m'ay- mait le mieulx, ve- la|pour _ quoy|j'ay tant d'ai- s'et|de gloi- re, vous me di- rez|qu'il est|* as- sez|no- toi-|re, qu'el l'ay- me'ail _ _ _|
 GA B4 A2 | G2 F2 _E2 G2 |[M:2/4] F4 |[M:3/4] B,4 B2 | G4 B2 | F4 F2 | G4 G2 | F4 C2 | G2 A2 F2 | %18
w: _ _ leurs et|que je suis _|de-|ceu, je|le scay|bien, mais|je ne|le veulx||
 G2 D4 |[M:2/2] G2 z2 G2 GG | cccB AG F2 | B3 A G2 F2 | G4 F4 | F2 FG AF GA | BB F4 c2 | %25
w: |croi- re, je le|scay bien, mais je ne le veulx||* croi-|re, car * je _ per- _|drois, car je- per-|
 B2 F2 c2 d2 | A4 z4 | B2 BB AFGA | Bc d2 c2 G2 | B2 A2 G4 | d2 dd cABc | d2 B2 A4 | D2 d2 cB A2 | %33
w: _ _ _ drois,|car|je per- drois l'ai- se que j'ay|re- _ ceu, que *|* * j'ay|re- ceu, car je per- drois, car|je per- drois|l'ai- se que jay re-|
 B2 AG F2 G2 | A2 F2 ED C2 | D2 F2 G2 A2 | B2 AG F4 | G2 A2 F2 G2 | D4 z2 G2 | FE D2 B2 AG | %40
w: ceu, car je per- _|_ drois l'ai- _ se|que j'ay re- ceu.|e,- _ _ _|_ _ _ _|||
 F2 G2 A2 F2 |"^#" ED C2 D2 F2 | G2 A2 B2 AG | F4 G2 A2 | F2 G2 D4 | G8 |] %46
w: ||||||

